X: 37726
T: Soldier's Joy
R: hornpipe
M: 4/4
K: Dmajor
|:AB|AFDF ABAF|A2 d2 d2 dB|AFDF ABAF|E2 A2 A2 AB|
AFDF ABAF|A2 d2 d2 fg|a2 f2 egfe|cd d2 d2:|
|:fg|a2 ab a2 f2|gfga b2 ag|fagf edcd|edcB A2 fg|
a2 ab a2 f2|gfga b2 ag|fagf egfd|cd d2 d2:|
|:dB|AGFE DEFG|A d2 A d2 dB|AGFE DEFG|E A2 B A2 AB|
AGFE DEFG|A d2 A d2 ef|a2 f2 egfe|cd d2 d2:|
|:fg|agfe defa|gfga b2 ag|fagf edcd|edcB A2 fg|
abaf edef|gfga b2 ag|fagf egfd|cd d2 d2:|

